X: 11640
T: Eileen Curran
R: reel
M: 4/4
K: Adorian
|:cBAG EGAc|BGdG eGdG|cBAG EGAB|cBcd eaab|
(3c'ba bg agea|gedc BdGB|cBAG EGAB|1 cedB cAAB:|2 cedB cAce||
|:a4 ac'ba|g4 gabg|eaag a3b|(3c'ba bg eaab|
(3c'ba bg agea|gedc BdGB|cBAG EGAB|1 cedB cAce:|2 cede cAA2||

